Gruvbox-Plus-Dark/actions/16/tools-media-optical-burn-image.svg

<svg xmlns="http://www.w3.org/2000/svg" width="16" height="16" version="1.1" viewBox="0 0 16 16">
 <defs>
  <style id="current-color-scheme" type="text/css">
   .ColorScheme-Text { color:#ebdbb2; } .ColorScheme-Highlight { color:#458588; }
  </style>
 </defs>
 <path style="fill:currentColor" class="ColorScheme-Text" d="M 5.0117188 1 C 4.0125194 1 4.0136719 1.9335938 4.0136719 1.9335938 C 4.0121719 1.9369937 4.0147719 2.5941896 4.0136719 2.6796875 A 6.9999955 6.9998286 0 0 1 7.0039062 2 A 6.9999955 6.9998286 0 0 1 14.003906 9 A 6.9999955 6.9998286 0 0 1 10.605469 14.994141 L 15.003906 14.994141 C 15.003906 14.994141 15.067156 15.00914 15.160156 14.994141 C 15.441156 14.950142 16.003906 14.75953 16.003906 14.060547 L 16.003906 1.9355469 C 16.003906 1.0022697 15.003906 1 15.003906 1 L 5.0117188 1 z M 7 3 C 3.7066 3 1 5.7066 1 9 C 1 12.2934 3.7066 15 7 15 C 10.2934 15 13 12.2934 13 9 C 13 5.7066 10.2934 3 7 3 z M 7 7 A 2 2 0 0 1 9 9 A 2 2 0 0 1 7 11 A 2 2 0 0 1 5 9 A 2 2 0 0 1 7 7 z"/>
</svg>

<svg width="16" height="16" version="1.1" viewBox="0 0 16 16" xmlns="http://www.w3.org/2000/svg">
  <defs>
    <style type="text/css">.ColorScheme-Text { color:#ebdbb2; } .ColorScheme-Highlight { color:#458588; }</style>
  </defs>
  <path class="ColorScheme-Text" d="m5.012 1v-0.0051zm1.988 2c-3.293 0-6 2.707-6 6s2.707 6 6 6 6-2.707 6-6-2.707-6-6-6zm0 4c1.105 0 2 0.8954 2 2 0 1.105-0.8954 2-2 2s-2-0.8954-2-2c0-1.105 0.8954-2 2-2zm-2-6c-0.554 0-1 0.446-1 1v0.6836c0.9369-0.4475 1.962-0.681 3-0.6836 3.866 0 7 3.134 7 7-5e-3 2.462-1.303 4.74-3.418 6h3.418c0.554 0 1-0.446 1-1v-12c0-0.554-0.446-1-1-1z" fill="currentColor"/>
</svg>
